!!!OTL: Nanny O 
!!!id: HA037
**kern
*clefG2
*k[]
*G:
*M4/4
{8b
8cc
=1
4dd
4g
4.dd
8cc
=2
4b
8.a
16g
4g}
{8f
8g
=3
4.b
8cc
8dd
8cc
8dd
8ff
=4
4gg
8.cc
16dd
4cc}
{8b
8cc
=5
4dd
4ff#
8ee
8dd
8cc
8b
=6
4cc
4dd
4.bb}
{8aa
=7
8.gg
16bb
8gg
8ff
8.dd
16cc
8dd
8ff#
=8
4gg
8.g
16a
4g}
{8.dd
16ee
=9
4.ff
8gg
4ff
8ee
8dd
=10
4bb
8.ff
16gg
4ff}
{8bb
8aa
=11
4gg
8gg
8aa
8bb
8aa
8bb
8ccc
=12
4ddd
8.gg
16aa
4gg}
{8.ff
16ee
=13
4dd
4bb
16ff
8.dd
8cc
8b
=14
4cc
4dd
4.bb}
{8aa
=15
8.gg
16bb
8gg
8ff
8.dd
16cc
8dd
8ff#
=16
4gg
8.g
16a
4g}
==
*-
!!!minrhy: 16
!!!meter: 4/4 
!!!cut: Nanny O 
!!!key: HA037  16  g 4/4 
!!!bem: Vorschlge
!!!fog: a--b--c--d--e--f--cw-d--
!! Haydn: Volksliedbearbeitungen, Bd1
